X: 484
%
T: Mrs. MacLeod Raasay
C:Sir Alex. Macdonald
O:Scotland
B:Keith Norman MacDonald : "The Skye collection of the best reels & strathspeys extant" : 1887
Z:Ralph Palmer
R:Reel
M:C
L:1/8
K:A
(c/2B/2) !segno!|:{cB}A2 {/g}a2 fefa | ec{/d}(cB) {/B}c2 c[Be] [1 {cB}A2 {/g}a2 fefa | ecTBA TB2 Bc :|
[2 faTfe fefg | {/g}afec TB2 (Bc) |: A/2A/2A {/d}cA ecca | ec{/d}cB c2 c[Be] |
[2A/2A/2A {/d}cA ecca | ecBA TB2 (Bc) :| [2 faTfe Tfefg | {/g}afec TBdcB !segno!|| "Last time."B2 (Bc) |]


